X: 38259
T: St Patrick's Cathedral
R: barndance
M: 4/4
K: Gmajor
d2 d2 B2 B2|{cd}c2 B2 A4|B2 F2 G2 AB|A2 G2 F4|
{EF}E2 FG A2 Bc|d2 F2 G2 c2|{Bc}B2 AG "tr"F3 G|G4G2 z2:|
|:B2 B2 e2 B2|c2 BA d4|B2 G2 E2 c2|{Bc}B4 A4|d2 g2gdcB|
c2 a2ac{Bc}BA|B2 g2 d2 {cd}c2|"tr"B2B/A/B/c/ A2 GF|
E2 c2 D2 "tr"fe/f/|g2 d2 ed c2|{Bc}B2 AG "tr"F3 G|G4G2 z2:|

